public/img/icons/prize4-label.svg

<svg width="21" height="21" viewBox="0 0 21 21" fill="none" xmlns="http://www.w3.org/2000/svg">
<path d="M10.8794 6.29541L10.8794 19.2954M1.87939 7.29541C1.87939 7.03019 1.98475 6.77584 2.17229 6.5883C2.35982 6.40077 2.61418 6.29541 2.87939 6.29541L18.8794 6.29541C19.1446 6.29541 19.399 6.40077 19.5865 6.5883C19.774 6.77584 19.8794 7.03019 19.8794 7.29541L19.8794 9.29541C19.8794 9.56063 19.774 9.81498 19.5865 10.0025C19.399 10.1901 19.1446 10.2954 18.8794 10.2954L2.87939 10.2954C2.61418 10.2954 2.35982 10.1901 2.17229 10.0025C1.98475 9.81498 1.87939 9.56063 1.87939 9.29541L1.87939 7.29541Z" stroke="#4348BF" stroke-width="2" stroke-linecap="round" stroke-linejoin="round"/>
<path d="M17.8794 10.2958L17.8794 17.2958C17.8794 17.8263 17.6687 18.335 17.2936 18.7101C16.9185 19.0851 16.4098 19.2958 15.8794 19.2958L5.87939 19.2958C5.34896 19.2958 4.84025 19.0851 4.46518 18.7101C4.09011 18.335 3.87939 17.8263 3.87939 17.2958L3.87939 10.2958M6.37939 6.29585C5.71635 6.29585 5.08047 6.03246 4.61163 5.56361C4.14279 5.09477 3.87939 4.45889 3.87939 3.79585C3.87939 3.13281 4.14279 2.49692 4.61163 2.02808C5.08047 1.55924 5.71635 1.29585 6.37939 1.29585C7.34408 1.27904 8.28942 1.74711 9.09213 2.63901C9.89484 3.53091 10.5177 4.80525 10.8794 6.29585C11.2411 4.80525 11.8639 3.53091 12.6667 2.63901C13.4694 1.74711 14.4147 1.27904 15.3794 1.29585C16.0424 1.29585 16.6783 1.55924 17.1472 2.02808C17.616 2.49692 17.8794 3.13281 17.8794 3.79585C17.8794 4.45889 17.616 5.09477 17.1472 5.56361C16.6783 6.03246 16.0424 6.29585 15.3794 6.29585" stroke="#4348BF" stroke-width="2" stroke-linecap="round" stroke-linejoin="round"/>
</svg>

<svg width="21" height="21" fill="none" xmlns="http://www.w3.org/2000/svg"><path d="M10.88 6.295v13m-9-12a1 1 0 0 1 1-1h16a1 1 0 0 1 1 1v2a1 1 0 0 1-1 1h-16a1 1 0 0 1-1-1v-2Z" stroke="#4348BF" stroke-width="2" stroke-linecap="round" stroke-linejoin="round"/><path d="M17.88 10.296v7a2 2 0 0 1-2 2h-10a2 2 0 0 1-2-2v-7m2.5-4a2.5 2.5 0 1 1 0-5c.964-.017 1.91.451 2.712 1.343.803.892 1.426 2.166 1.787 3.657.362-1.49.985-2.765 1.788-3.657.802-.892 1.748-1.36 2.712-1.343a2.5 2.5 0 0 1 0 5" stroke="#4348BF" stroke-width="2" stroke-linecap="round" stroke-linejoin="round"/></svg>
